X:1
T:Title
%%score { 1 | 2 }
L:1/8
M:2/4
K:C
V:1 treble nm="Grand Piano"
V:2 bass 
V:1
 z2 z[Q:1/4=80] [EG] | [FA][EG] [_E^F][=EG] | [Ec]2 [EG][CE] | [B,D][CE] [EG][DF] |[M:3/8] [CE]3 | %5
[M:1/8] [EG] |[M:2/4] [FA][EG] [_E^F][=EG] | [Ec]2 [EG][Ge] | [DGd][EAc] [DGB][C^FA] | %9
[M:3/8] [B,G]3 |[M:1/8] G |[M:2/4] AG AB | [Ec]2 [_EG][Gc] | dB cd |[M:3/8] [Ge]3 |[M:1/8] [EG] | %16
[M:2/4] [Ge][Gd] [Gc][GB] | [GB]2 AA | GE [B,D][DF] |[M:3/8] [CE]3 |[M:1/8] [EG] | %21
[M:2/4] [Ge][Gd] [Gc][GB] |[M:9/16] [FA]->[FA][Af]-[Af]/d |[M:2/4] cc [DB][FB] |[M:3/8] [Ec]3 |] %25
V:2
 z2 z [C,C] | [C,C][C,C] [C,C][C,C] | [C,C]2 [C,C][C,G,] | [G,,G,][G,,G,] [G,,G,][G,,G,] | %4
[M:3/8] [C,G,]3 |[M:1/8] [C,C] |[M:2/4] [C,C][C,C] [C,C][C,C] | [C,C]2 [C,C][C,C] | B,,C, D,D, | %9
[M:3/8] G,,3 |[M:1/8] [G,B,] |[M:2/4][K:treble] [G,CF][G,B,F] [G,CF][G,DF] | [C,C]2 [C,C][E,C] | %13
 [G,B,G][G,G] [G,A,G][G,B,G] |[M:3/8][K:bass] [C,C]3 |[M:1/8] [C,C] | %16
[M:2/4] [C,C][D,B,] [E,C][E,C] | [F,C]2 [F,CF][F,CF] | [G,CE][G,C] [G,,G,][G,,G,] | %19
[M:3/8] [C,G,]3 |[M:1/8] [C,C] |[M:2/4] [C,C][D,B,] [E,C][E,C] | %22
[M:9/16] [F,C]->[F,C][F,C]-[F,C]/[F,A,F] |[M:2/4] [G,E][G,E] [G,,G,][G,,G,] |[M:3/8] [C,G,]3 |] %25

